X:1
T:Sweetness
T:Fannie Woods
T:Rag Two-Step
T:Copyright 1912 by Forster Music Publisher
T:Copyright 1912 by Forster Music Publisher
T:Copyright 1912 by Forster Music Publisher
T:Copyright 1912 by Forster Music Publisher
Z:Copyright 1912 by Forster Music Publisher
%%score { 1 | ( 2 3 ) }
L:1/8
Q:1/4=80
M:2/4
K:C
V:1 treble nm="Piano" snm="Pno."
V:2 treble 
V:3 treble 
V:1
"^Respectfully dedicated to Mr. W. J. Mansfield""^Moderato"!f! a/b/^c'/a/ b<c' | A/B/^c/A/ B<c | %2
 z [G^c][GB][G_B] | [GA] z !>![A^ca] z |:!mf! [GA]/B/[G^c]/A/ [GB]/c/[GA]/B/ | %5
 [G^c]/A/[GB]/c/ [GA]/B/c/A/ | [Ad]/e/[Af]/d/ [Ae]/f/[Ad]/e/ | [Af]/d/[Ae]/f/ [Ad]/e/[Af]/d/ | %8
 g/a/[fb]/g/ [fa][fb]/g/ | [fa][fb]/g/ [fa]2 |{gab} (c'b/_b/ a/_a/g/_g/ | f/e/_e/d/ _d/c/B/_B/) | %12
 [GA]/B/[G^c]/A/ [GB]/c/[GA]/B/ | [G^c]/A/[GB]/c/ [GA]/B/c/A/ | [Ad]/e/[Af]/d/ [Ae]/f/[Ad]/e/ | %15
 [Af]/d/[Ae]/f/ [Ad]/e/[Af]/d/ | [ga]/a/[fb]/g/ [fa][fb]/g/ | [fa][fb]/g/ [fa]2 | %18
{gab} [ec'] !>![Fc]2 [FGd] |1 [EGc] z z2 :|2 [EGc] z [cec'] z |: %21
!p!!p! z [^G^g]/[A^cea]/- [Acea]/[Gg]/[Acea] | z [^d^d']/[ea^c'e']/- [eac'e']/[dd']/[eac'e'] | %23
 z [^G^g]/[Ad^fa]/- [Adfa]/[Gg]/[Adfa] | [d^fd']2 [cfc'][Afa] | (g/^g/a/^a/ b/_b/=a/_a/) | %26
 g [ege']2 [dfd'] | z !>![c^d^fc']2 [cdfa] | [ceg]3 z | z [^G^g]/[A^cea]/- [Acea]/[Gg]/[Acea] | %30
 z [^d^d']/[ea^c'e']/- [eac'e']/[dd']/[eac'e'] | z [^G^g]/[Ad^fa]/- [Adfa]/[Gg]/[Adfa] | %32
 [d^fd']2 [cfc'][Afa] | [Gg]/(^G/A/^A/ B/c/^c/d/ | ^d/e/f/^f/ g/^g/a/b/ | [cec'])a/g/- g/e/d |1 %36
 [EGc] z z2 :|2!<(! [EGc] z [cec'] z!<)! ||!ff! [GA]/B/[G^c]/A/ [GB]/c/[GA]/B/ | %39
 [G^c]/A/[GB]/c/ [GA]/B/c/A/ | [Ad]/e/[Af]/d/ [Ae]/f/[Ad]/e/ | [Af]/d/[Ae]/f/ [Ad]/e/[Af]/d/ | %42
 g/a/[fb]/g/ [fa][fb]/g/ | [fa][fb]/g/ [fa]2 |{gab} (c'b/_b/ a/_a/g/_g/ | f/e/_e/d/ _d/c/B/_B/) | %46
 [GA]/B/[G^c]/A/ [GB]/c/[GA]/B/ | [G^c]/A/[GB]/c/ [GA]/B/c/A/ | [Ad]/e/[Af]/d/ [Ae]/f/[Ad]/e/ | %49
 [Af]/d/[Ae]/f/ [Ad]/e/[Af]/d/ | [ga]/a/[fb]/g/ [fa][fb]/g/ | [fa][fb]/g/ [fa]2 | %52
{gab} [ec'] !>![Fc]2 [FGd] | [EGc] z [cec'] z |:[K:F]"^Trio"!p!!p! [ca]^g/[ca]/- [ca]/g/[ca]/f/ | %55
 z/ [A^cg]^f/ [Acg]2 | [Af]e/[Af]/- [Af]/e/[Af]/d/ | z/ [GAe]^d/ [GA^ce]2 | %58
 [FBd]/^c/d/[FBf]/- [FBf]/e/[FBf] | [FAc]/=B/c/[Fcf]/- [Fcf]/e/[Fcf] | %60
 [=Bd]/e/f/[Bda]/- [Bda]/^g/[Bda] | [_Bg]c/d/ e/f/g/^g/ | [ca]^g/[ca]/- [ca]/g/[ca]/f/ | %63
 z/ [A^cg]^f/ [Acg]2 | [Af]e/[Af]/- [Af]/e/[Af]/d/ | z/ [GAe]^d/ [GA^ce]2 | %66
 [FBd]/^c/d/[FBf]/- [FBf]/e/[FBf] | [FAc]/=B/c/[Af]/- [Af]/e/[Af] | %68
 [Bg]/^f/[Bg]/[=Ba]/- [Ba]/f/[_Bcg] |1 [Acf](c/d/ e/f/g/^g/) :|2!<(! [Acf] z [faf'] z!<)! || %71
[K:C]!ff! z [^G^g]/[A^cea]/- [Acea]/[Gg]/[Acea] | z [^d^d']/[ea^c'e']/- [eac'e']/[dd']/[eac'e'] | %73
 z [^G^g]/[Ad^fa]/- [Adfa]/[Gg]/[Adfa] | [d^fd']2 [cfc'][Afa] | (g/^g/a/^a/ b/_b/=a/_a/) | %76
 g [ege']2 [dfd'] | z !>![c^d^fc']2 !>![cdfa] | [ceg]3 z | z [^G^g]/[A^cea]/- [Acea]/[Gg]/[Acea] | %80
 z [^d^d']/[ea^c'e']/- [eac'e']/[dd']/[eac'e'] | z [^G^g]/[Ad^fa]/- [Adfa]/[Gg]/[Adfa] | %82
 [d^fd']2 [cfc'][Afa] | [Gg]/(^G/A/^A/ B/c/^c/d/ | ^d/e/f/^f/ g/^g/a/b/ | [cec'])a/g/- g/e/d | %86
 [EGc] z !^![cec'] !fermata!z |] %87
V:2
 [A^ceg]4 | [A,^CEG]4 |[K:bass] !^![A,,,A,,] [A,E][B,E][^B,E] | [^CE] z [A,,,A,,][^D,,^D,] |: %4
 [E,,E,][G,A,^C] A,,[E,G,A,C] | E,[G,A,^C] [A,,A,][G,,G,] | [F,,F,][A,DF] A,,[A,DF] | %7
 D,[A,DF] [D,,D,][C,,C,] | [B,,,B,,][G,DF] G,,[G,B,DF] | D,[G,B,DF] [D,,D,][_D,,_D,] | %10
 !arpeggio![C,,G,,E,][K:treble] z z2 | z4 |[K:bass] [E,,E,][G,A,^C] A,,[E,G,A,C] | %13
 E,[G,A,^C] [A,,A,][G,,G,] | [F,,F,][A,DF] A,,[A,DF] | D,[A,DF] [D,,D,][C,,C,] | %16
 [B,,,B,,][G,DF] G,,[G,B,DF] | D,[G,B,DF] (([D,,D,][_D,,_D,] | [C,,C,])) !>![F,_A,CD]2 [G,B,D] |1 %19
 [C,C][C,,C,] [D,,D,][^D,,^D,] :|2 [C,C] z [C,,C,][^D,,^D,] |: [E,,E,][A,^CEA] A,,[A,CEA] | %22
 ^C,[A,EA] [A,,,A,,][^C,,^C,] | [D,,D,][^F,A,C] A,,[D,F,A,C] | [D,,D,][^D,,^D,] [E,,E,][^F,,^F,] | %25
 [G,,G,] [G,B,DF]2 [G,B,DF] | [G,,G,][^G,,^G,] [A,,A,][B,,B,] | [C,C](^D,/^F,/ A,/C/^D/^F/ | %28
 G/E/C/A,/ G,)[^D,,^D,] | [E,,E,][A,^CEA] A,,[A,CEA] | ^C,[A,EA] [A,,,A,,][^C,,^C,] | %31
 [D,,D,][^F,A,C] A,,[D,F,A,C] | [D,,D,][^D,,^D,] [E,,E,][^F,,^F,] | [G,,G,] [G,B,D=F]2 [D,D] | %34
 [B,,B,][G,,G,] [F,,F,][D,,D,] | [C,,C,][G,,G,] [A,,A,][B,,B,] |1 %36
 [C,C][A,,A,] [G,,G,]!>![^D,,^D,] :|2 [C,C][G,,G,] [C,,C,]!>![^D,,^D,] || %38
 [E,,E,][G,A,^C] A,,[E,G,A,C] | E,[G,A,^C] [A,,A,][G,,G,] | [F,,F,][A,DF] A,,[A,DF] | %41
 D,[A,DF] [D,,D,][C,,C,] | [B,,,B,,][G,DF] G,,[G,B,DF] | D,[G,B,DF] [D,,D,][_D,,_D,] | %44
 !arpeggio![C,,G,,E,][K:treble] z z2 | z4 |[K:bass] [E,,E,][G,A,^C] A,,[E,G,A,C] | %47
 E,[G,A,^C] [A,,A,][G,,G,] | [F,,F,][A,DF] A,,[A,DF] | D,[A,DF] [D,,D,][C,,C,] | %50
 [B,,,B,,][G,DF] G,,[G,B,DF] | D,[G,B,DF] [D,,D,][_D,,_D,] | [C,,C,] !>![F,_A,CD]2 [G,B,D] | %53
 [C,C][G,,G,] [C,,C,] z |:[K:F] [F,,F,][A,CF] C,[A,CF] | E,[A,^CEG] [E,,E,][_E,,_E,] | %56
 [D,,D,][A,DF] A,,[A,DF] | ^C,[A,^CE] A,,[E,G,A,C] | [B,,,B,,][F,B,D] [D,,D,][_D,,_D,] | %59
 [C,,C,][F,A,C] [A,,A,][_A,,_A,] | [G,,G,][G,DF] [G,,G,][F,,F,] | [E,,E,][B,,B,] [A,,A,][G,,G,] | %62
 [F,,F,][A,CF] C,[A,CF] | E,[A,^CEG] (([E,,E,][_E,,_E,] | [D,,D,]))[A,DF] A,,[A,DF] | %65
 ^C,[A,^CE] A,,[A,CE] | [B,,,B,,][F,B,D] [D,,D,][_D,,_D,] | [C,,C,][F,A,C] [D,,D,][_D,,_D,] | %68
 [C,,C,][^C,,^C,] [D,,D,][E,,E,] |1 [F,,F,][B,,B,] [A,,A,][G,,G,] :|2 %70
 [F,,F,][C,,C,]!8vb(! F,,,!8vb)!!>![^D,,^D,] ||[K:C] [E,,E,][A,^CEA] A,,[A,CEA] | %72
 ^C,[A,EA] [A,,,A,,][^C,,^C,] | [D,,D,][^F,A,C] A,,[D,F,A,C] | [D,,D,][^D,,^D,] [E,,E,][^F,,^F,] | %75
 [G,,G,] [G,B,DF]2 [G,B,DF] | [G,,G,][^G,,^G,] [A,,A,][B,,B,] | !>![C,C](^D,/^F,/ A,/C/^D/^F/ | %78
 G/E/C/A,/ G,)!>![^D,,^D,] | [E,,E,][A,^CEA] A,,[A,CEA] | ^C,[A,EA] [A,,,A,,][^C,,^C,] | %81
 [D,,D,][^F,A,C] A,,[D,F,A,C] | [D,,D,][^D,,^D,] [E,,E,][^F,,^F,] | [G,,G,] [G,B,D=F]2 [D,D] | %84
 [B,,B,][G,,G,] [F,,F,][D,,D,] | [C,,C,][G,,G,] [A,,A,][B,,B,] | [C,C][G,,G,] !^![C,,C,] z |] %87
V:3
 x4 | x4 |[K:bass] x4 | x4 |: x4 | x4 | x4 | x4 | x4 | x4 | x[K:treble] (_e/d/ _d/c/B/_B/ | %11
 A/_A/G/_G/ F/E/_E/D/) |[K:bass] x4 | x4 | x4 | x4 | x4 | x4 | x4 |1 x4 :|2 x4 |: x4 | x4 | x4 | %24
 x4 | x4 | x4 | x4 | x4 | x4 | x4 | x4 | x4 | x4 | x4 | x4 |1 x4 :|2 x4 || x4 | x4 | x4 | x4 | x4 | %43
 x4 | x[K:treble] (_e/d/ _d/c/B/_B/ | A/_A/G/_G/ F/E/_E/D/) |[K:bass] x4 | x4 | x4 | x4 | x4 | x4 | %52
 x4 | x4 |:[K:F] x4 | x4 | x4 | x4 | x4 | x4 | x4 | x4 | x4 | x4 | x4 | x4 | x4 | x4 | x4 |1 x4 :|2 %70
 x2!8vb(! x!8vb)! x ||[K:C] x4 | x4 | x4 | x4 | x4 | x4 | x4 | x4 | x4 | x4 | x4 | x4 | x4 | x4 | %85
 x4 | x4 |] %87

